X:1
T:Title
%%score { ( 1 4 ) | ( 2 3 ) }
L:1/8
Q:1/4=100
M:4/4
K:Eb
V:1 treble nm="Grand Piano"
V:4 treble 
V:2 bass 
V:3 bass 
V:1
 [GB]2 [EG]>[FA] [GB]2 e2 | F>A [B,EG]>F E2 B,2 | E>F G>A c2 B2 | B3 A F2 z2 | G2 G>A [EGB]2 E2 | %5
w: John~R.~Sweney * * * *|||||
 e2 d>c B2 G2 | [DB]>[DF] [EG]>[FA] [EG]2 [DF]2 | E6 z2 | [EG]2 [Ec]2 =B3 G | %9
w: ||||
 [Gc]2 [Gd]2 [Ge]2 [Gc]2 | [B,FB]2 [DFB]2 [CF=A]3 [=A,F] | [B,FB]2 [Fc]2 d2- [Ad]2 | %12
w: |||
 [Ge]2 B2 G2 E2 | F>=E F>A d2 c2 | B>F G>A [EG]2 [DF]2 | E6 z2 |] %16
w: ||||
V:2
 [E,E]2 [E,B,]2 [E,B,]2[K:treble] [G,B,E]2 | B,->[B,F][K:bass] z z/ [A,D]/ [E,G,B,]2 [E,G,]2 | %2
 [E,G,B,]>[E,A,B,] [E,B,E]>[E,B,F] [E,A,E]2 [E,G,E]2 | F,4 B,2 z2 | [E,B,E]2 E>F E,2 [G,B,]2 | %5
 [A,CE]2 E->[A,E] [G,B,E]2 [E,B,E]2 | [B,,B,]>[B,,B,] [B,,B,]>[B,,B,] [B,,B,]2 [B,,A,]2 | %7
 [E,G,]6 z2 | [C,C]2 [C,G,]2 [G,D]3 [F,=B,D] | [E,C]2 [D,=B,]2 [C,C]2 [E,G,]2 | D,2 B,,2 F,3 E, | %11
 D,2 [C,=A,]2 [B,,B,]4 | [E,B,]2 B,2 G,2 E,2 | [A,C]2 C>[CF] [A,EB]2 [A,EA]2 | %14
 [B,EG]>[B,D] [B,E]>[B,F][K:bass] [B,,B,]2 [B,,A,]2 | [E,G,]6 z2 |] %16
V:3
 x6[K:treble] x2 | D2[K:bass] B,,2 z4 | x8 | B,,6 z2 | z2 [E,B,]2 z4 | z2 [A,B,]2 z4 | x8 | x8 | %8
 x8 | x8 | x8 | x8 | x8 | z2 A,2 z4 | x4[K:bass] x4 | x8 |] %16
V:4
 x8 | x8 | x8 | D6 z2 | x8 | x8 | x8 | x8 | x8 | x8 | x8 | z4 F2 z2 | x8 | x8 | x8 | x8 |] %16

